svg/fluentui-system-icons/ic_fluent_puzzle_cube_48_regular.svg

<svg width="48" height="48" viewBox="0 0 48 48" fill="none" xmlns="http://www.w3.org/2000/svg">
<path d="M6 17V35.75C6 39.2018 8.79822 42 12.25 42H35.75C39.2018 42 42 39.2018 42 35.75V12.25C42 8.79822 39.2018 6 35.75 6H16.998V8.5H17V17H6ZM8.5 28.5V19.5H17V28.5H8.5ZM8.5 35.75V31H17V39.5H12.25C10.1789 39.5 8.5 37.8211 8.5 35.75ZM28.5 39.5H19.5V31H28.5V39.5ZM35.75 39.5H31V31H39.5V35.75C39.5 37.8211 37.8211 39.5 35.75 39.5ZM39.5 19.5V28.5H31V19.5L39.5 19.5ZM39.5 12.25V17L31 17V8.5H35.75C37.8211 8.5 39.5 10.1789 39.5 12.25ZM19.5 8.5H28.5V17H19.5V8.5ZM28.5 19.5V28.5H19.5V19.5H28.5Z" fill="#212121"/>
</svg>

<svg xmlns="http://www.w3.org/2000/svg" width="48" height="48"><path d="M6 17v18.75A6.25 6.25 0 0 0 12.25 42h23.5A6.25 6.25 0 0 0 42 35.75v-23.5A6.25 6.25 0 0 0 35.75 6H16.998v2.5H17V17H6Zm2.5 11.5v-9H17v9H8.5Zm0 7.25V31H17v8.5h-4.75a3.75 3.75 0 0 1-3.75-3.75Zm20 3.75h-9V31h9v8.5Zm7.25 0H31V31h8.5v4.75a3.75 3.75 0 0 1-3.75 3.75Zm3.75-20v9H31v-9h8.5Zm0-7.25V17H31V8.5h4.75a3.75 3.75 0 0 1 3.75 3.75Zm-20-3.75h9V17h-9V8.5Zm9 11v9h-9v-9h9Z"/></svg>
